php/apps/contacts/img/globe.svg

<?xml version="1.0" encoding="UTF-8" standalone="no"?>
<!-- Created with Inkscape (http://www.inkscape.org/) -->
<svg
   xmlns:svg="http://www.w3.org/2000/svg"
   xmlns="http://www.w3.org/2000/svg"
   xmlns:xlink="http://www.w3.org/1999/xlink"
   version="1.0"
   width="16"
   height="16"
   id="svg2485">
  <defs
     id="defs2487">
    <linearGradient
       id="linearGradient3707-319-631">
      <stop
         id="stop4637"
         style="stop-color:#254b6d;stop-opacity:1"
         offset="0" />
      <stop
         id="stop4639"
         style="stop-color:#415b73;stop-opacity:1"
         offset="0.5" />
      <stop
         id="stop4641"
         style="stop-color:#6195b5;stop-opacity:1"
         offset="1" />
    </linearGradient>
    <linearGradient
       x1="20"
       y1="43"
       x2="20"
       y2="2.6887112"
       id="linearGradient2483"
       xlink:href="#linearGradient3707-319-631"
       gradientUnits="userSpaceOnUse"
       gradientTransform="matrix(0.3769285,0,0,0.3769199,-1.196178,-0.8960149)" />
    <linearGradient
       id="linearGradient2867-449-88-871-390-598-476-591-434-148">
      <stop
         id="stop4627"
         style="stop-color:#51cfee;stop-opacity:1"
         offset="0" />
      <stop
         id="stop4629"
         style="stop-color:#49a3d2;stop-opacity:1"
         offset="0.26238" />
      <stop
         id="stop4631"
         style="stop-color:#3470b4;stop-opacity:1"
         offset="0.704952" />
      <stop
         id="stop4633"
         style="stop-color:#273567;stop-opacity:1"
         offset="1" />
    </linearGradient>
    <radialGradient
       cx="61.240059"
       cy="-8.7256308"
       r="9.7552834"
       fx="61.240059"
       fy="-8.7256308"
       id="radialGradient2481"
       xlink:href="#linearGradient2867-449-88-871-390-598-476-591-434-148"
       gradientUnits="userSpaceOnUse"
       gradientTransform="matrix(0,1.3551574,-1.3551567,0,-3.824604,-80.384092)" />
    <linearGradient
       id="linearGradient4873">
      <stop
         id="stop4875"
         style="stop-color:#ffffff;stop-opacity:1"
         offset="0" />
      <stop
         id="stop4877"
         style="stop-color:#ffffff;stop-opacity:0"
         offset="1" />
    </linearGradient>
    <linearGradient
       x1="63.397362"
       y1="-12.489107"
       x2="63.397362"
       y2="5.4675598"
       id="linearGradient2464"
       xlink:href="#linearGradient4873"
       gradientUnits="userSpaceOnUse"
       gradientTransform="matrix(0.7432394,0,0,0.7432224,-38.229789,10.609333)" />
  </defs>
  <g
     id="layer1">
    <path
       d="M 15.5,7.999735 C 15.5,12.142003 12.141888,15.5 8.000094,15.5 C 3.857922,15.5 0.5,12.141965 0.5,7.999735 C 0.5,3.8576552 3.857922,0.4999997 8.000094,0.4999997 C 12.141888,0.4999997 15.5,3.8576552 15.5,7.999735 L 15.5,7.999735 z"
       id="path6495"
       style="fill:url(#radialGradient2481);fill-opacity:1;fill-rule:nonzero;stroke:url(#linearGradient2483);stroke-width:0.99999994;stroke-miterlimit:4;stroke-dasharray:none" />
    <path
       d="M 8.1022062,0.95621712 L 7.236144,1.0568701 L 6.2834735,1.3210847 C 6.3646244,1.2921995 6.446834,1.2606694 6.5309208,1.2330132 L 6.4195696,1.0317069 L 6.048401,1.0946151 L 5.8628152,1.2707582 L 5.5782512,1.3085031 L 5.318433,1.4343196 L 5.1947098,1.4972277 L 5.157592,1.5475543 L 4.9720082,1.5852992 L 4.8606579,1.8243504 L 4.712189,1.522391 L 4.6626994,1.6482076 L 4.6874462,1.9879118 L 4.4523728,2.1892181 L 4.3162766,2.5540857 L 4.6008407,2.5540857 L 4.712191,2.3150345 L 4.7493088,2.2269631 C 4.8744282,2.136984 4.9930427,2.0367771 5.1204782,1.9501669 L 5.4174142,2.05082 C 5.6107409,2.1843878 5.8054259,2.3200676 5.9989133,2.4534326 L 6.2834735,2.1892181 L 5.9617936,2.05082 L 5.8133266,1.7488605 L 5.2689442,1.6859524 L 5.2565714,1.6230443 L 5.4916438,1.6733709 L 5.6277409,1.5349726 L 5.9246759,1.4720643 C 5.9949454,1.4373108 6.06407,1.4122795 6.1350055,1.3839929 L 5.9494207,1.560136 L 6.6175262,2.0256568 L 6.6175262,2.302453 L 6.357707,2.5666673 L 6.7041325,3.2712399 L 6.9392071,3.1328408 L 7.2361431,2.6673207 C 7.6536127,2.5360677 8.0298636,2.383337 8.423888,2.2017997 L 8.3991411,2.3779426 L 8.5970969,2.5163408 L 8.9435226,2.2772895 L 8.7703107,2.0759833 L 8.5352353,2.2143814 L 8.4610018,2.1892185 C 8.4780536,2.1812953 8.4933662,2.1721092 8.5104914,2.1640557 L 8.8569181,1.2581766 L 8.1022062,0.95621712 z M 4.712189,2.3150345 L 4.9967521,2.5163408 L 5.2318265,2.5163408 L 5.2318265,2.2772895 L 4.9472634,2.1514733 L 4.712189,2.3150345 L 4.712189,2.3150345 z M 11.281895,2.1514733 L 10.774628,2.2772895 L 10.452951,2.4911776 L 10.452951,2.6799019 L 9.9456829,3.0070243 L 10.044661,3.4977095 L 10.341597,3.2838208 L 10.527183,3.4977095 L 10.737514,3.6235259 L 10.873608,3.2586575 L 10.799375,3.0447699 L 10.873608,2.8937896 L 11.170544,2.6169941 L 11.30664,2.6169941 L 11.170544,2.9189543 L 11.170544,3.1957496 C 11.292932,3.1618717 11.416467,3.1486778 11.541713,3.1328408 L 11.195288,3.3844746 L 11.170543,3.5354537 L 10.774628,3.8751588 L 10.366341,3.7745049 L 10.366341,3.5354537 L 10.180756,3.6612703 L 10.267364,3.8751588 L 9.9704267,3.8751588 L 9.8095868,4.1519548 L 9.61163,4.3784244 L 9.2528324,4.4539139 L 9.463162,4.6678019 L 9.5126507,4.88169 L 9.2528324,4.88169 L 8.9064068,5.0704143 L 8.9064068,5.6240059 L 9.0672458,5.6240059 L 9.2157146,5.7875676 L 9.5497684,5.6240059 L 9.6734907,5.2843013 L 9.920937,5.1333218 L 9.9704267,5.0075057 L 10.366341,4.9068526 L 10.589042,5.1584854 L 10.824117,5.2843013 L 10.688021,5.5610979 L 10.898351,5.49819 L 11.009701,5.2213934 L 10.737512,4.9068526 L 10.848862,4.9068526 L 11.121054,5.1333218 L 11.170543,5.4352821 L 11.405615,5.7120781 L 11.467479,5.3094657 L 11.591202,5.2465566 C 11.722897,5.3855865 11.826706,5.5556097 11.937626,5.7120781 L 12.345913,5.7372433 L 12.580987,5.8882234 L 12.469637,6.0517841 L 12.234564,6.2656727 L 11.888135,6.2656727 L 11.430361,6.1146942 L 11.195287,6.1398593 L 11.022074,6.3411657 L 10.527181,5.8378996 L 10.180756,5.7372462 L 9.6734907,5.8001547 L 9.2280866,5.9259711 C 8.974001,6.2188978 8.7138634,6.5150518 8.4733747,6.8192683 L 8.1888107,7.5238405 L 8.3249076,7.6748196 L 8.0774604,8.0396877 L 8.3496515,8.6813514 C 8.5761437,8.9418962 8.8039678,9.2006825 9.030129,9.461412 L 9.3641827,9.1720348 L 9.5002778,9.3481795 L 9.8590764,9.1091277 L 9.9827973,9.2475248 L 10.341595,9.2475248 L 10.551927,9.4865757 L 10.428203,9.914352 L 10.675649,10.203731 L 10.663275,10.706995 L 10.848861,11.071864 L 10.712766,11.386405 C 10.699498,11.611997 10.68802,11.827605 10.68802,12.053231 C 10.79718,12.358902 10.906621,12.663823 11.0097,12.971693 L 11.083934,13.462375 L 11.083934,13.714009 L 11.281891,13.714009 L 11.566453,13.525283 L 11.91288,13.525283 L 12.432517,12.933947 L 12.370656,12.732639 L 12.717083,12.418101 L 12.457262,12.128722 L 12.76657,11.877089 L 13.063506,11.688364 L 13.199602,11.537384 L 13.112995,11.19768 C 13.112995,10.911684 13.112996,10.628161 13.112995,10.342127 L 13.348069,9.8136993 L 13.645006,9.4865757 L 13.966685,8.6813514 L 13.966685,8.467463 C 13.806607,8.4879689 13.653171,8.506459 13.496537,8.5177905 L 13.818218,8.1906678 L 14.263621,7.8887078 L 14.498696,7.6119125 L 14.498696,7.3099534 C 14.445379,7.2077028 14.391536,7.0976601 14.337854,6.9954116 L 14.127525,7.2470431 L 13.966685,7.0583197 L 13.731609,6.8695964 L 13.731609,6.4795648 L 14.003802,6.7941047 L 14.313111,6.75636 C 14.452648,6.8851798 14.586636,6.9997236 14.709024,7.1463926 L 14.906986,6.9199159 C 14.906986,6.6761022 14.63695,5.4724677 14.053296,4.4539139 C 13.46964,3.4356954 12.444894,2.5037591 12.444895,2.5037591 L 12.370661,2.6421572 L 12.098469,2.9441167 L 11.752043,2.579249 L 12.098469,2.579249 L 12.259308,2.4031061 L 11.615949,2.2772895 L 11.281895,2.1514733 z M 3.8461259,2.3150345 L 3.7224027,2.6421572 C 3.7224027,2.6421572 3.5057941,2.6785236 3.4502116,2.6924839 C 2.7403769,3.3576613 1.3089548,4.8004591 0.97574709,7.5112538 C 0.98894063,7.5741032 1.2108206,7.9390292 1.2108206,7.9390292 L 1.7552039,8.2661509 L 2.2995852,8.417131 L 2.5346596,8.7065091 L 2.8934573,8.9833054 L 3.1037868,8.9455608 L 3.2522558,9.0210508 L 3.2522558,9.0713763 L 3.0542972,9.6375498 L 2.8934573,9.8766016 L 2.942946,9.9898366 L 2.8192238,10.442776 L 3.2769996,11.298327 L 3.7471476,11.713522 L 3.957476,12.015482 L 3.9327303,12.644563 L 4.0811982,12.99685 L 3.9327303,13.67626 C 3.9327303,13.67626 3.9129189,13.670673 3.9327303,13.739167 C 3.9527179,13.807695 4.759781,14.268689 4.8111654,14.22985 C 4.8623746,14.190288 4.9101447,14.154361 4.9101447,14.154361 L 4.860656,14.00338 L 5.0709847,13.802075 L 5.1452191,13.588188 L 5.4792709,13.474953 L 5.7390901,12.820706 L 5.6648567,12.644563 L 5.8380694,12.367767 L 6.2339838,12.279695 L 6.4319415,11.801593 L 6.3824509,11.210255 L 6.6917597,10.769898 L 6.7412484,10.316959 C 6.3168632,10.102948 5.9004921,9.8830534 5.4792709,9.6627135 L 5.2689423,9.2475198 L 4.8853999,9.1594491 L 4.6750703,8.5932746 L 4.1678047,8.6561827 L 3.7224017,8.32906 L 3.2522529,8.7442535 L 3.2522529,8.8071626 C 3.1114329,8.7658292 2.9446126,8.7597462 2.8192238,8.6813464 L 2.7202454,8.3793874 L 2.7202454,8.0522637 L 2.3985655,8.0900083 C 2.4244522,7.8816386 2.4591052,7.6692598 2.485171,7.4609265 L 2.2995852,7.4609265 L 2.1140005,7.6999783 L 1.9407887,7.7880501 L 1.6809694,7.6370692 L 1.6562245,7.3099456 L 1.7057143,6.9576606 L 2.0892557,6.6557005 L 2.3985645,6.6557005 L 2.4604271,6.4795582 L 2.8439686,6.5676288 L 3.1285316,6.932497 L 3.1780203,6.3285781 L 3.672914,5.9133853 L 3.8461259,5.4730269 L 4.2172963,5.3220476 L 4.415253,5.0200879 L 4.8854018,4.9320161 L 5.1204763,4.57973 C 4.8878,4.57973 4.6479303,4.57973 4.415253,4.57973 L 4.8606579,4.3658421 L 5.1699649,4.3658421 L 5.5658793,4.2274443 L 5.6401139,4.6174752 L 5.8133266,4.3406788 L 5.615369,4.2022808 L 5.6648596,4.0387201 L 5.5040187,3.8877395 L 5.3308048,3.8374132 L 5.3802955,3.6486888 L 5.2441994,3.3844746 L 4.9348905,3.5102908 L 4.9843801,3.2712399 L 4.6255827,3.0573516 L 4.3410204,3.5606172 L 4.3657663,3.7367603 L 4.0812032,3.8625768 L 3.9079904,4.2526078 L 3.821384,3.8877395 L 3.3388631,3.6864335 L 3.2522568,3.4096375 L 3.9079904,3.0321885 L 4.1925535,2.755392 L 4.2173002,2.4282694 L 4.0564593,2.3401977 L 3.8461298,2.315035 L 3.8461259,2.3150345 z M 9.1538541,2.9189543 L 9.1538541,3.1202592 L 9.2652062,3.246076 L 9.2652062,3.5480356 L 9.2033438,3.9506479 L 9.5250246,3.8877395 L 9.760098,3.6486888 L 9.5497694,3.4473819 C 9.4815603,3.2626763 9.4124355,3.0961113 9.3270669,2.9189543 L 9.1538541,2.9189543 z M 8.881662,3.3215656 L 8.6837063,3.3844746 L 8.7331959,3.7493421 L 8.9930152,3.6109428 L 8.881662,3.3215656 L 8.881662,3.3215656 z M 12.506754,6.6305386 L 12.803691,6.9828228 L 13.162489,7.7628866 L 13.385189,8.0145183 L 13.273839,8.2787347 L 13.471797,8.5177846 C 13.380952,8.5238987 13.292977,8.5303684 13.199605,8.5303684 C 13.029984,8.1679096 12.895741,7.802374 12.766575,7.4231829 L 12.543871,7.1715503 L 12.420149,6.7186111 L 12.506754,6.6305399 L 12.506754,6.6305386 z"
       id="path6534"
       style="opacity:0.4;fill:#000000;fill-opacity:1;fill-rule:nonzero;stroke:none" />
    <path
       d="M 14.500001,7.9997709 C 14.500001,11.589737 11.589636,14.5 8.0000818,14.5 C 4.4101984,14.5 1.5000001,11.589705 1.5000001,7.9997709 C 1.5000001,4.4099703 4.4101984,1.5000014 8.0000818,1.5000014 C 11.589636,1.5000014 14.500001,4.4099703 14.500001,7.9997709 L 14.500001,7.9997709 z"
       id="path2451"
       style="opacity:0.4;fill:none;fill-opacity:1;fill-rule:nonzero;stroke:url(#linearGradient2464);stroke-width:1;stroke-miterlimit:4;stroke-dasharray:none;stroke-opacity:1" />
  </g>
</svg>

<?xml version="1.0" encoding="UTF-8" standalone="no"?>
<svg xmlns="http://www.w3.org/2000/svg" height="16" width="16" version="1.0" xmlns:xlink="http://www.w3.org/1999/xlink">
 <defs>
  <linearGradient id="b" y2="2.6887" gradientUnits="userSpaceOnUse" x2="20" gradientTransform="matrix(.37693 0 0 .37692 -1.1962 -.89601)" y1="43" x1="20">
   <stop stop-color="#254b6d" offset="0"/>
   <stop stop-color="#415b73" offset=".5"/>
   <stop stop-color="#6195b5" offset="1"/>
  </linearGradient>
  <radialGradient id="a" gradientUnits="userSpaceOnUse" cy="-8.7256" cx="61.24" gradientTransform="matrix(0 1.3552 -1.3552 0 -3.8246 -80.384)" r="9.7553">
   <stop stop-color="#51cfee" offset="0"/>
   <stop stop-color="#49a3d2" offset=".26238"/>
   <stop stop-color="#3470b4" offset=".70495"/>
   <stop stop-color="#273567" offset="1"/>
  </radialGradient>
  <linearGradient id="c" y2="5.4676" gradientUnits="userSpaceOnUse" x2="63.397" gradientTransform="matrix(.74324 0 0 .74322 -38.23 10.609)" y1="-12.489" x1="63.397">
   <stop stop-color="#fff" offset="0"/>
   <stop stop-color="#fff" stop-opacity="0" offset="1"/>
  </linearGradient>
 </defs>
 <path d="m15.5 7.9997c0 4.1423-3.358 7.5003-7.4999 7.5003-4.1422 0-7.5001-3.358-7.5001-7.5003 0-4.142 3.3579-7.4997 7.5001-7.4997 4.1419 0 7.4999 3.3577 7.4999 7.4997z" stroke="url(#b)" fill="url(#a)"/>
 <path opacity=".4" d="m8.1022 0.95622l-0.8661 0.10068-0.9526 0.2642c0.0811-0.0289 0.1633-0.0604 0.2474-0.0881l-0.1113-0.2013-0.3712 0.0629-0.1856 0.1762-0.2845 0.0377-0.2599 0.1258-0.1237 0.0629-0.0371 0.0504-0.1856 0.0377-0.1113 0.2391-0.1485-0.302-0.0495 0.1258 0.0247 0.3397-0.235 0.2013-0.1361 0.3649h0.2845l0.1114-0.2391 0.0371-0.088c0.1251-0.09 0.2437-0.1902 0.3712-0.2768l0.2969 0.1006c0.1933 0.1336 0.388 0.2693 0.5815 0.4026l0.2846-0.2642-0.3217-0.1384-0.1485-0.3019-0.5444-0.0629-0.0123-0.063 0.235 0.0504 0.1361-0.1384 0.297-0.0629c0.0702-0.0348 0.1394-0.0598 0.2103-0.0881l-0.1856 0.1761 0.6681 0.4656v0.2768l-0.2598 0.2642 0.3464 0.7045 0.2351-0.1384 0.2969-0.4655c0.4175-0.1312 0.7938-0.284 1.1878-0.4655l-0.0248 0.1761 0.198 0.1384 0.3464-0.239-0.1732-0.2013-0.2351 0.1384-0.0742-0.0252c0.0171-0.0079 0.0324-0.0171 0.0495-0.0251l0.3464-0.9059-0.7547-0.30198zm-3.39 1.3588l0.2846 0.2013h0.235v-0.239l-0.2845-0.1258-0.2351 0.1635zm6.5698-0.1635l-0.507 0.1258-0.322 0.2139v0.1887l-0.5073 0.3271 0.0993 0.4907 0.297-0.2139 0.185 0.2139 0.211 0.1258 0.136-0.3648-0.075-0.2139 0.075-0.151 0.297-0.2768h0.136l-0.136 0.302v0.2767c0.122-0.0338 0.245-0.047 0.371-0.0629l-0.347 0.2517-0.024 0.151-0.396 0.3397-0.409-0.1007v-0.239l-0.185 0.1258 0.086 0.2139h-0.2966l-0.1608 0.2768-0.198 0.2264-0.3588 0.0755 0.2104 0.2139 0.0495 0.2139h-0.2599l-0.3464 0.1887v0.5536h0.1608l0.1485 0.1636 0.3341-0.1636 0.1237-0.3397 0.2474-0.151 0.0495-0.1258 0.3956-0.1006 0.223 0.2516 0.235 0.1258-0.136 0.2768 0.21-0.0629 0.112-0.2768-0.272-0.3145h0.111l0.272 0.2264 0.05 0.302 0.235 0.2768 0.061-0.4026 0.124-0.0629c0.132 0.139 0.236 0.309 0.347 0.4655l0.408 0.0251 0.235 0.151-0.111 0.1636-0.235 0.2139h-0.347l-0.458-0.151-0.235 0.0252-0.173 0.2013-0.495-0.5033-0.346-0.1007-0.5075 0.063-0.4454 0.1258c-0.2541 0.2929-0.5142 0.5891-0.7547 0.8933l-0.2846 0.7045 0.1361 0.151-0.2474 0.3649 0.2722 0.6417c0.2264 0.2605 0.4543 0.5193 0.6804 0.78l0.3341-0.2894 0.1361 0.1762 0.3588-0.2391 0.1237 0.1384h0.3592l0.21 0.2391-0.124 0.4278 0.248 0.2896-0.013 0.503 0.186 0.365-0.136 0.314c-0.014 0.226-0.025 0.442-0.025 0.667 0.109 0.306 0.219 0.611 0.322 0.919l0.074 0.49v0.252h0.198l0.284-0.189h0.347l0.52-0.591-0.062-0.201 0.346-0.315-0.26-0.289 0.31-0.252 0.297-0.189 0.136-0.151-0.087-0.339v-0.856l0.235-0.5283 0.297-0.3271 0.322-0.8052v-0.2139c-0.16 0.0205-0.314 0.039-0.47 0.0503l0.321-0.3271 0.446-0.302 0.235-0.2768v-0.3019c-0.054-0.1023-0.107-0.2123-0.161-0.3146l-0.21 0.2516-0.161-0.1887-0.235-0.1887v-0.39l0.272 0.3145 0.309-0.0377c0.14 0.1288 0.274 0.2433 0.396 0.39l0.198-0.2265c0-0.2438-0.27-1.4474-0.854-2.466-0.583-1.0182-1.608-1.9501-1.608-1.9501l-0.074 0.1384-0.273 0.3019-0.346-0.3649h0.346l0.161-0.1761-0.643-0.1258-0.334-0.1258zm-7.4359 0.1635l-0.1237 0.3272s-0.2166 0.0363-0.2722 0.0503c-0.7098 0.6652-2.1412 2.108-2.4744 4.8188 0.01314 0.0628 0.235 0.4277 0.235 0.4277l0.5444 0.3272 0.5444 0.1509 0.2351 0.2894 0.3588 0.2768 0.2103-0.0377 0.1485 0.0755v0.0503l-0.198 0.5661-0.1608 0.2391 0.0494 0.1132-0.1237 0.4532 0.4578 0.855 0.4701 0.416 0.2104 0.301-0.0248 0.63 0.1485 0.352-0.1485 0.679s-0.0198-0.005 0 0.063c0.02 0.069 0.8271 0.53 0.8785 0.491 0.0512-0.04 0.0989-0.076 0.0989-0.076l-0.0494-0.151 0.2103-0.201 0.0742-0.214 0.3341-0.113 0.2598-0.654-0.0742-0.176 0.1732-0.277 0.3959-0.088 0.1979-0.478-0.0494-0.592 0.3093-0.44 0.0494-0.453c-0.4243-0.214-0.8407-0.4339-1.2619-0.6543l-0.2104-0.4152-0.3835-0.0881-0.2103-0.5661-0.5073 0.0629-0.4454-0.3271-0.4701 0.4152v0.0629c-0.1409-0.0414-0.3077-0.0475-0.4331-0.1259l-0.099-0.3019v-0.3271l-0.3216 0.0377c0.0259-0.2084 0.0605-0.4207 0.0866-0.6291h-0.1856l-0.1856 0.2391-0.1732 0.0881-0.2598-0.151-0.0248-0.3272 0.0495-0.3522 0.3836-0.302h0.3093l0.0618-0.1761 0.3836 0.088 0.2845 0.3649 0.0495-0.6039 0.4949-0.4152 0.1732-0.4404 0.3712-0.151 0.198-0.3019 0.4701-0.0881 0.2351-0.3523h-0.7052l0.4454-0.2139h0.3093l0.3959-0.1384 0.0742 0.3901 0.1732-0.2768-0.1979-0.1384 0.0495-0.1636-0.1609-0.151-0.1732-0.0503 0.0495-0.1887-0.1361-0.2642-0.3093 0.1258 0.0495-0.2391-0.3588-0.2138-0.2846 0.5032 0.0248 0.1762-0.2846 0.1258-0.1732 0.39-0.0866-0.3649-0.4825-0.2013-0.0866-0.2768 0.6557-0.3774 0.2846-0.2768 0.0247-0.3271-0.1608-0.0881-0.2104-0.0252zm5.3078 0.604v0.2013l0.1113 0.1258v0.3019l-0.0619 0.4026 0.3217-0.0629 0.2351-0.239-0.2103-0.2013c-0.0682-0.1847-0.1374-0.3513-0.2227-0.5284h-0.1732zm-0.2722 0.4026l-0.198 0.0629 0.0495 0.3648 0.2598-0.1384-0.1113-0.2893zm3.6253 3.3089l0.297 0.3523 0.358 0.7801 0.223 0.2516-0.111 0.2642 0.198 0.2391c-0.091 0.0061-0.179 0.0126-0.272 0.0126-0.17-0.3625-0.304-0.728-0.433-1.1072l-0.223-0.2516-0.124-0.453 0.087-0.0881z"/>
 <path opacity=".4" d="m14.5 7.9998c0 3.5902-2.91 6.5002-6.4999 6.5002s-6.5001-2.91-6.5001-6.5002c0-3.5898 2.9102-6.4998 6.5001-6.4998s6.4999 2.91 6.4999 6.4998z" stroke="url(#c)" fill="none"/>
</svg>
